X:97
T: Ruhmlied auf Sachsens Bergbau
N: A0454
O: Europa, Mitteleuropa, Deutschland
N: Rhaw, Bicinia Tom. I. 1545 No. 79.
R: Romanze, Ballade, Lied
M: 4/1
L: 1/2
K: C
z2C2G2A2 | B2G2A2B2 | c4z2
c2 | e2f2g2d2 | f3ed4 | z4
d2 | d4d2 | c4B2 | c3BA2 | G6 | z4
G2 | c4c2 | G4G2 | E4D2 | C6 | z4
C2 | G4G2 | A4B2 | c4c2 | c4
c2 | d4c2 | B4A2 | G4A2 | E6 | z4
E2 | G4G2 | A4A2 | F4F2 | D6 | z4
D2 | G4A2 | G4F2 | E4D2 | F4D2 | C6
G4F2 | E2D4 | C6

